packages/tokens/icons/coveoCoveo/size32Px.svg

<svg viewBox="0 0 32 32" fill="none" xmlns="http://www.w3.org/2000/svg" width="1em" height="1em"><path d="M10.3327 18.74L9.74473 17.746C9.11473 18.432 8.13473 18.922 6.86073 18.922C4.78873 18.922 3.26273 17.424 3.26273 15.156C3.26273 12.888 4.77473 11.39 6.86073 11.39C8.20473 11.39 9.28273 12.09 9.66073 12.566L10.2347 11.474C9.70273 10.956 8.61073 10.2 6.80473 10.2C4.03273 10.2 1.86273 12.174 1.86273 15.184C1.86273 18.194 3.97673 20.168 6.79073 20.168C8.62473 20.168 9.73073 19.412 10.3327 18.74Z" fill="currentColor"/><path d="M30.3327 18.74L29.7447 17.746C29.1147 18.432 28.1347 18.922 26.8607 18.922C24.7887 18.922 23.2627 17.424 23.2627 15.156C23.2627 12.888 24.7747 11.39 26.8607 11.39C28.2047 11.39 29.2827 12.09 29.6607 12.566L30.2347 11.474C29.7027 10.956 28.6107 10.2 26.8047 10.2C24.0327 10.2 21.8627 12.174 21.8627 15.184C21.8627 18.194 23.9767 20.168 26.7907 20.168C28.6247 20.168 29.7307 19.412 30.3327 18.74Z" fill="currentColor"/><path d="M10.8914 14.95C10.8914 14.194 11.0267 13.494 11.2974 12.85C11.5774 12.1967 11.9554 11.632 12.4314 11.156C12.9074 10.68 13.4674 10.3067 14.1114 10.036C14.7647 9.76533 15.4647 9.63 16.2114 9.63C16.9767 9.63 17.6627 9.74667 18.2694 9.98C18.8854 10.204 19.408 10.512 19.8374 10.904C20.2667 11.2867 20.5934 11.7393 20.8174 12.262C21.0507 12.7753 21.1674 13.3213 21.1674 13.9C21.1674 14.5067 21.0787 15.048 20.9014 15.524C20.724 16 20.4814 16.406 20.1734 16.742C19.8747 17.0687 19.5294 17.3207 19.1374 17.498C18.7454 17.666 18.3347 17.75 17.9054 17.75C17.532 17.75 17.2474 17.6707 17.0514 17.512C16.8554 17.3533 16.734 17.148 16.6874 16.896C16.4727 17.1107 16.216 17.3067 15.9174 17.484C15.628 17.6613 15.306 17.75 14.9514 17.75C14.774 17.75 14.5827 17.7173 14.3774 17.652C14.172 17.5867 13.9807 17.47 13.8034 17.302C13.626 17.134 13.4767 16.91 13.3554 16.63C13.234 16.35 13.1734 15.9953 13.1734 15.566C13.1734 15.1367 13.248 14.7073 13.3974 14.278C13.5467 13.8487 13.752 13.4613 14.0134 13.116C14.284 12.7707 14.6014 12.4907 14.9654 12.276C15.3387 12.0613 15.7494 11.954 16.1974 11.954C16.4307 11.954 16.6314 11.9773 16.7994 12.024C16.9674 12.0707 17.1074 12.1313 17.2194 12.206C17.3407 12.2713 17.434 12.3413 17.4994 12.416C17.574 12.4813 17.6254 12.542 17.6534 12.598L17.7794 12.192H18.9274L17.8774 15.776C17.8027 16.0187 17.7654 16.224 17.7654 16.392C17.7654 16.532 17.798 16.644 17.8634 16.728C17.9287 16.812 18.05 16.854 18.2274 16.854C18.4327 16.854 18.6427 16.784 18.8574 16.644C19.0814 16.504 19.2867 16.308 19.4734 16.056C19.66 15.804 19.814 15.5007 19.9354 15.146C20.0567 14.782 20.1174 14.3807 20.1174 13.942C20.1174 13.4473 20.0287 12.9947 19.8514 12.584C19.674 12.164 19.4174 11.8047 19.0814 11.506C18.7454 11.2073 18.3394 10.974 17.8634 10.806C17.3874 10.6287 16.8507 10.54 16.2534 10.54C15.6 10.54 15.0074 10.652 14.4754 10.876C13.9434 11.1 13.4907 11.408 13.1174 11.8C12.744 12.192 12.4547 12.6587 12.2494 13.2C12.044 13.732 11.9414 14.3107 11.9414 14.936C11.9414 15.608 12.0394 16.2007 12.2354 16.714C12.4314 17.2273 12.7067 17.6567 13.0614 18.002C13.4254 18.3473 13.8547 18.6087 14.3494 18.786C14.8534 18.9633 15.4087 19.052 16.0154 19.052C16.4634 19.052 16.8787 19.0147 17.2614 18.94C17.6534 18.8747 17.9987 18.7907 18.2974 18.688C18.6054 18.5947 18.8667 18.4967 19.0814 18.394C19.296 18.2913 19.4594 18.212 19.5714 18.156L19.9074 18.8C19.814 18.856 19.6647 18.9493 19.4594 19.08C19.2634 19.2107 19.002 19.3413 18.6754 19.472C18.3487 19.6027 17.9567 19.7147 17.4994 19.808C17.042 19.9107 16.5054 19.962 15.8894 19.962C15.1987 19.962 14.55 19.85 13.9434 19.626C13.3367 19.4113 12.8047 19.0893 12.3474 18.66C11.8994 18.24 11.5447 17.722 11.2834 17.106C11.022 16.4807 10.8914 15.762 10.8914 14.95ZM14.4054 15.468C14.4054 15.8973 14.5034 16.2007 14.6994 16.378C14.8954 16.5553 15.1334 16.644 15.4134 16.644C15.712 16.644 15.9967 16.532 16.2674 16.308C16.538 16.084 16.748 15.72 16.8974 15.216L17.4154 13.452C17.1354 13.1253 16.7574 12.962 16.2814 12.962C16.0014 12.962 15.7447 13.0367 15.5114 13.186C15.278 13.326 15.0774 13.5173 14.9094 13.76C14.7507 13.9933 14.6247 14.2593 14.5314 14.558C14.4474 14.8567 14.4054 15.16 14.4054 15.468Z" fill="currentColor"/></svg>

<svg xmlns="http://www.w3.org/2000/svg" fill="none" viewBox="0 0 32 32" width="1em" height="1em"><path fill="currentColor" d="m10.333 18.74-.588-.994c-.63.686-1.61 1.176-2.884 1.176-2.072 0-3.598-1.498-3.598-3.766S4.775 11.39 6.86 11.39c1.344 0 2.422.7 2.8 1.176l.574-1.092c-.532-.518-1.624-1.274-3.43-1.274-2.772 0-4.942 1.974-4.942 4.984s2.114 4.984 4.928 4.984c1.834 0 2.94-.756 3.542-1.428Zm20 0-.588-.994c-.63.686-1.61 1.176-2.884 1.176-2.072 0-3.598-1.498-3.598-3.766s1.512-3.766 3.598-3.766c1.344 0 2.422.7 2.8 1.176l.574-1.092c-.532-.518-1.624-1.274-3.43-1.274-2.772 0-4.942 1.974-4.942 4.984s2.114 4.984 4.928 4.984c1.834 0 2.94-.756 3.542-1.428Zm-19.442-3.79c0-.756.136-1.456.406-2.1a5.345 5.345 0 0 1 1.134-1.694 5.196 5.196 0 0 1 1.68-1.12 5.432 5.432 0 0 1 2.1-.406c.766 0 1.452.117 2.058.35a4.651 4.651 0 0 1 1.568.924c.43.383.756.835.98 1.358.234.513.35 1.06.35 1.638 0 .607-.088 1.148-.266 1.624a3.68 3.68 0 0 1-.728 1.218 3.154 3.154 0 0 1-1.036.756 3.096 3.096 0 0 1-1.232.252c-.373 0-.658-.08-.854-.238a1.002 1.002 0 0 1-.364-.616 3.89 3.89 0 0 1-.77.588 1.813 1.813 0 0 1-1.54.168 1.49 1.49 0 0 1-.574-.35 2.012 2.012 0 0 1-.448-.672c-.121-.28-.182-.635-.182-1.064 0-.43.075-.859.224-1.288.15-.43.355-.817.616-1.162.271-.345.588-.625.952-.84a2.427 2.427 0 0 1 1.232-.322c.234 0 .434.023.602.07.168.047.308.107.42.182a.995.995 0 0 1 .28.21.638.638 0 0 1 .154.182l.126-.406h1.148l-1.05 3.584a2.161 2.161 0 0 0-.112.616c0 .14.033.252.098.336.066.084.187.126.364.126.206 0 .416-.07.63-.21.224-.14.43-.336.616-.588.187-.252.341-.555.462-.91a3.79 3.79 0 0 0 .182-1.204 3.39 3.39 0 0 0-.266-1.358 2.969 2.969 0 0 0-.77-1.078 3.624 3.624 0 0 0-1.218-.7 4.588 4.588 0 0 0-1.61-.266 4.54 4.54 0 0 0-1.778.336 3.983 3.983 0 0 0-1.358.924 4.123 4.123 0 0 0-.868 1.4 4.78 4.78 0 0 0-.308 1.736c0 .672.098 1.265.294 1.778.196.513.472.943.826 1.288a3.63 3.63 0 0 0 1.288.784 4.99 4.99 0 0 0 1.666.266c.448 0 .864-.037 1.246-.112.392-.065.738-.15 1.036-.252.308-.093.57-.191.784-.294.215-.103.378-.182.49-.238l.336.644c-.093.056-.242.15-.448.28-.196.13-.457.261-.784.392a6.92 6.92 0 0 1-1.176.336 7.418 7.418 0 0 1-1.61.154c-.69 0-1.339-.112-1.946-.336a4.495 4.495 0 0 1-1.596-.966 4.513 4.513 0 0 1-1.064-1.554c-.261-.625-.392-1.344-.392-2.156Zm3.514.518c0 .43.098.733.294.91.196.177.434.266.714.266.299 0 .584-.112.854-.336.271-.224.481-.588.63-1.092l.518-1.764c-.28-.327-.658-.49-1.134-.49a1.4 1.4 0 0 0-.77.224c-.233.14-.434.331-.602.574-.158.233-.284.5-.378.798a3.346 3.346 0 0 0-.126.91Z"/></svg>
